X:1
T: The Marquis of Huntly's Strathspey
C:William Marshall
R:Strathspey
Q: 128
K:Gm
M:4/4
L:1/16
|:F2|DG3 G3F DG3 G3A|F3G A3B cBAG F3A|BG3 G3F Da3 f3=e|f3c dcBA BG3 G4|
DG3 G3F DG3 G3A|F3G A3B cBAG F3A|BG3 G3F Da3 f3=e|f3c dcBA BG3 G2f2|
g3a bg3 d3g b3g|agfd c3=e f3c af3|g3a bg3 d3g b3g|bag=e da3 ggg2 g4|
d3g b3g a3f gd3|f3c A3f cBAG F3d|BG3 G3F Da3 g3e|f3c dcBA BG3 G2:|
